apps/site/public/icons/companies/about/system-one.svg

<svg xmlns="http://www.w3.org/2000/svg" fill="none" viewBox="0 0 170 29" height="29" width="170">
<path fill="white" d="M162.586 22.5019C161.006 22.5019 159.644 22.1533 158.498 21.456C157.36 20.7516 156.481 19.7697 155.862 18.5103C155.25 17.2438 154.944 15.7709 154.944 14.0918C154.944 12.4126 155.25 10.9326 155.862 9.65188C156.481 8.36403 157.342 7.36079 158.445 6.64215C159.555 5.9164 160.85 5.55353 162.33 5.55353C163.184 5.55353 164.027 5.69583 164.859 5.98044C165.692 6.26505 166.45 6.72753 167.133 7.3679C167.816 8.00115 168.36 8.84075 168.766 9.88668C169.171 10.9326 169.374 12.2205 169.374 13.7502V14.8175H156.737V12.6403H166.812C166.812 11.7153 166.627 10.8899 166.257 10.1642C165.895 9.43842 165.375 8.86565 164.699 8.44585C164.03 8.02606 163.241 7.81616 162.33 7.81616C161.327 7.81616 160.459 8.06519 159.726 8.56325C159 9.0542 158.441 9.69457 158.05 10.4844C157.659 11.2741 157.463 12.1208 157.463 13.0245V14.476C157.463 15.714 157.677 16.7635 158.103 17.6244C158.538 18.4783 159.139 19.1293 159.907 19.5776C160.676 20.0187 161.569 20.2393 162.586 20.2393C163.248 20.2393 163.845 20.1468 164.379 19.9618C164.92 19.7697 165.386 19.4851 165.777 19.108C166.169 18.7237 166.471 18.247 166.684 17.6778L169.118 18.3609C168.862 19.1862 168.431 19.912 167.826 20.5381C167.222 21.1571 166.475 21.641 165.585 21.9896C164.696 22.3311 163.696 22.5019 162.586 22.5019Z"></path>
<path fill="white" d="M140.652 12.2987V22.1604H138.133V5.767H140.566V8.32847H140.78C141.164 7.49599 141.747 6.82716 142.53 6.32198C143.313 5.80969 144.323 5.55354 145.561 5.55354C146.671 5.55354 147.642 5.78123 148.475 6.2366C149.307 6.68486 149.955 7.36792 150.417 8.28577C150.88 9.19652 151.111 10.3492 151.111 11.7438V22.1604H148.592V11.9145C148.592 10.6267 148.258 9.62343 147.589 8.9048C146.92 8.17905 146.002 7.81617 144.835 7.81617C144.031 7.81617 143.313 7.9905 142.679 8.33914C142.053 8.68778 141.559 9.19652 141.196 9.86535C140.833 10.5342 140.652 11.3453 140.652 12.2987Z"></path>
<path fill="white" d="M134.023 11.2315C134.023 13.5368 133.607 15.529 132.774 17.2082C131.942 18.8874 130.8 20.1824 129.348 21.0931C127.897 22.0039 126.239 22.4592 124.375 22.4592C122.511 22.4592 120.853 22.0039 119.401 21.0931C117.95 20.1824 116.808 18.8874 115.975 17.2082C115.143 15.529 114.727 13.5368 114.727 11.2315C114.727 8.92614 115.143 6.93389 115.975 5.2547C116.808 3.57552 117.95 2.28055 119.401 1.36981C120.853 0.459065 122.511 0.00369263 124.375 0.00369263C126.239 0.00369263 127.897 0.459065 129.348 1.36981C130.8 2.28055 131.942 3.57552 132.774 5.2547C133.607 6.93389 134.023 8.92614 134.023 11.2315ZM131.461 11.2315C131.461 9.33882 131.145 7.74146 130.512 6.43938C129.885 5.1373 129.035 4.15185 127.961 3.48302C126.894 2.81419 125.698 2.47978 124.375 2.47978C123.051 2.47978 121.852 2.81419 120.778 3.48302C119.711 4.15185 118.86 5.1373 118.227 6.43938C117.601 7.74146 117.288 9.33882 117.288 11.2315C117.288 13.1241 117.601 14.7215 118.227 16.0235C118.86 17.3256 119.711 18.3111 120.778 18.9799C121.852 19.6487 123.051 19.9831 124.375 19.9831C125.698 19.9831 126.894 19.6487 127.961 18.9799C129.035 18.3111 129.885 17.3256 130.512 16.0235C131.145 14.7215 131.461 13.1241 131.461 11.2315Z"></path>
<path fill="white" d="M108.798 22.3311C108.272 22.3311 107.82 22.1426 107.443 21.7655C107.066 21.3884 106.877 20.9366 106.877 20.41C106.877 19.8835 107.066 19.4317 107.443 19.0546C107.82 18.6775 108.272 18.4889 108.798 18.4889C109.325 18.4889 109.776 18.6775 110.153 19.0546C110.531 19.4317 110.719 19.8835 110.719 20.41C110.719 20.7587 110.63 21.0789 110.452 21.3706C110.282 21.6623 110.05 21.8971 109.759 22.075C109.474 22.2458 109.154 22.3311 108.798 22.3311Z"></path>
<path fill="white" d="M80.8398 22.1604V5.76698H83.2732V8.32845H83.4867C83.8282 7.45328 84.3796 6.77378 85.141 6.28995C85.9023 5.799 86.8166 5.55353 87.8839 5.55353C88.9654 5.55353 89.8655 5.799 90.5841 6.28995C91.3098 6.77378 91.8755 7.45328 92.2811 8.32845H92.4518C92.8716 7.48174 93.5013 6.80936 94.3409 6.3113C95.1805 5.80612 96.1873 5.55353 97.3613 5.55353C98.827 5.55353 100.026 6.01246 100.958 6.93032C101.89 7.84106 102.356 9.26054 102.356 11.1888V22.1604H99.8374V11.1888C99.8374 9.97918 99.5065 9.11468 98.8448 8.59527C98.1831 8.07586 97.404 7.81616 96.5075 7.81616C95.3548 7.81616 94.4619 8.1648 93.8286 8.86209C93.1954 9.55226 92.8787 10.4274 92.8787 11.4876V22.1604H90.3173V10.9326C90.3173 10.0005 90.0149 9.24987 89.4101 8.68065C88.8053 8.10432 88.0262 7.81616 87.0728 7.81616C86.4182 7.81616 85.8062 7.99048 85.237 8.33912C84.6749 8.68777 84.2196 9.1716 83.8709 9.79062C83.5294 10.4025 83.3586 11.1105 83.3586 11.9145V22.1604H80.8398Z"></path>
<path fill="white" d="M70.2208 22.5019C68.6412 22.5019 67.2787 22.1533 66.1331 21.456C64.9947 20.7516 64.116 19.7697 63.497 18.5103C62.8851 17.2438 62.5791 15.7709 62.5791 14.0918C62.5791 12.4126 62.8851 10.9326 63.497 9.65188C64.116 8.36403 64.9769 7.36079 66.0798 6.64215C67.1897 5.9164 68.4847 5.55353 69.9647 5.55353C70.8185 5.55353 71.6616 5.69583 72.4941 5.98044C73.3266 6.26505 74.0844 6.72753 74.7674 7.3679C75.4505 8.00115 75.9948 8.84075 76.4004 9.88668C76.8059 10.9326 77.0087 12.2205 77.0087 13.7502V14.8175H64.3721V12.6403H74.4472C74.4472 11.7153 74.2622 10.8899 73.8923 10.1642C73.5294 9.43842 73.01 8.86565 72.334 8.44585C71.6652 8.02606 70.8754 7.81616 69.9647 7.81616C68.9614 7.81616 68.0934 8.06519 67.3605 8.56325C66.6348 9.0542 66.0762 9.69457 65.6849 10.4844C65.2935 11.2741 65.0979 12.1208 65.0979 13.0245V14.476C65.0979 15.714 65.3113 16.7635 65.7382 17.6244C66.1723 18.4783 66.7735 19.1293 67.5419 19.5776C68.3104 20.0187 69.2033 20.2393 70.2208 20.2393C70.8825 20.2393 71.4802 20.1468 72.0138 19.9618C72.5546 19.7697 73.0206 19.4851 73.412 19.108C73.8033 18.7237 74.1057 18.247 74.3192 17.6778L76.7526 18.3609C76.4964 19.1862 76.0659 19.912 75.4612 20.5381C74.8564 21.1571 74.1093 21.641 73.2199 21.9896C72.3305 22.3311 71.3308 22.5019 70.2208 22.5019Z"></path>
<path fill="white" d="M59.7348 5.76699V7.90155H51.2393V5.76699H59.7348ZM53.7153 1.83941H56.2341V17.4644C56.2341 18.1759 56.3373 18.7095 56.5436 19.0653C56.7571 19.4139 57.0275 19.6487 57.3548 19.7697C57.6892 19.8835 58.0414 19.9405 58.4114 19.9405C58.6889 19.9405 58.9165 19.9262 59.0944 19.8978C59.2723 19.8622 59.4146 19.8337 59.5213 19.8124L60.0336 22.075C59.8629 22.139 59.6245 22.2031 59.3186 22.2671C59.0126 22.3383 58.6248 22.3738 58.1552 22.3738C57.4437 22.3738 56.7464 22.2209 56.0634 21.9149C55.3874 21.609 54.8253 21.1429 54.3771 20.5168C53.9359 19.8906 53.7153 19.1009 53.7153 18.1474V1.83941Z"></path>
<path fill="white" d="M48.5155 9.43842L46.2528 10.0788C46.1105 9.70168 45.9006 9.33525 45.6231 8.97949C45.3528 8.61662 44.9828 8.31778 44.5132 8.08298C44.0436 7.84818 43.4423 7.73078 42.7095 7.73078C41.7062 7.73078 40.8702 7.96202 40.2014 8.42451C39.5397 8.87988 39.2088 9.45977 39.2088 10.1642C39.2088 10.7903 39.4365 11.2848 39.8919 11.6477C40.3472 12.0106 41.0588 12.313 42.0264 12.5549L44.4598 13.1525C45.9255 13.5083 47.0177 14.0526 47.7364 14.7855C48.455 15.5112 48.8143 16.4469 48.8143 17.5924C48.8143 18.5316 48.5439 19.3712 48.0032 20.1112C47.4695 20.8512 46.7224 21.4346 45.7619 21.8615C44.8013 22.2885 43.6843 22.5019 42.4106 22.5019C40.7386 22.5019 39.3547 22.139 38.2589 21.4133C37.1632 20.6875 36.4695 19.6274 36.1777 18.2328L38.5684 17.6351C38.7961 18.5174 39.2266 19.1791 39.8598 19.6203C40.5002 20.0614 41.3362 20.282 42.368 20.282C43.542 20.282 44.474 20.0329 45.1642 19.5349C45.8615 19.0297 46.2102 18.4249 46.2102 17.7205C46.2102 17.1513 46.0109 16.6746 45.6125 16.2903C45.214 15.899 44.6021 15.6073 43.7768 15.4152L41.0445 14.7748C39.5432 14.4191 38.4404 13.8676 37.736 13.1205C37.0387 12.3663 36.69 11.4236 36.69 10.2922C36.69 9.36727 36.9497 8.54902 37.4691 7.8375C37.9957 7.12598 38.7107 6.56744 39.6144 6.16188C40.5251 5.75631 41.5568 5.55353 42.7095 5.55353C44.3317 5.55353 45.6054 5.90929 46.5303 6.62081C47.4624 7.33232 48.1241 8.27153 48.5155 9.43842Z"></path>
<path fill="white" d="M21.7956 28.3079C21.3687 28.3079 20.988 28.2723 20.6536 28.2012C20.3192 28.1372 20.0879 28.0731 19.9599 28.0091L20.6002 25.7891C21.2121 25.9457 21.7529 26.0026 22.2225 25.9599C22.6921 25.9172 23.1083 25.7073 23.4712 25.3302C23.8412 24.9602 24.1792 24.359 24.4851 23.5265L24.9547 22.2458L18.8926 5.767H21.6248L26.1501 18.8305H26.3208L30.8461 5.767H33.5783L26.6197 24.5511C26.3066 25.3978 25.9188 26.0987 25.4563 26.6536C24.9939 27.2157 24.4567 27.632 23.8448 27.9023C23.24 28.1727 22.5569 28.3079 21.7956 28.3079Z"></path>
<path fill="white" d="M13.3029 5.76699C13.1748 4.68548 12.6554 3.84589 11.7447 3.24821C10.8339 2.65054 9.71682 2.3517 8.3934 2.3517C7.42573 2.3517 6.57903 2.50823 5.85328 2.8213C5.13464 3.13437 4.57254 3.56484 4.16698 4.11271C3.76853 4.66058 3.5693 5.28315 3.5693 5.98044C3.5693 6.56389 3.70805 7.06551 3.98554 7.48531C4.27015 7.89799 4.63302 8.24307 5.07416 8.52057C5.51531 8.79094 5.97779 9.01507 6.46163 9.19295C6.94546 9.36372 7.39016 9.50246 7.79572 9.60919L10.0157 10.2069C10.5849 10.3563 11.2181 10.5626 11.9154 10.8259C12.6198 11.0892 13.2922 11.4485 13.9326 11.9038C14.5801 12.3521 15.1137 12.9284 15.5335 13.6328C15.9533 14.3372 16.1632 15.2017 16.1632 16.2263C16.1632 17.4074 15.8537 18.4747 15.2347 19.4282C14.6227 20.3816 13.7262 21.1394 12.5451 21.7015C11.3711 22.2636 9.94451 22.5446 8.26533 22.5446C6.69998 22.5446 5.34454 22.292 4.199 21.7868C3.06056 21.2817 2.16405 20.5773 1.50945 19.6736C0.861971 18.77 0.495539 17.7205 0.410156 16.5252H3.14239C3.21354 17.3505 3.49103 18.0336 3.97487 18.5743C4.46581 19.108 5.08484 19.5064 5.83193 19.7697C6.58614 20.0258 7.39727 20.1539 8.26533 20.1539C9.27568 20.1539 10.1829 19.9903 10.9869 19.663C11.7909 19.3285 12.4277 18.8661 12.8973 18.2755C13.3669 17.6778 13.6017 16.9805 13.6017 16.1836C13.6017 15.4579 13.3989 14.8673 12.9934 14.4119C12.5878 13.9566 12.0542 13.5866 11.3925 13.302C10.7307 13.0174 10.0157 12.7683 9.24722 12.5549L6.55768 11.7864C4.85004 11.2955 3.49815 10.5946 2.50202 9.6839C1.5059 8.77316 1.00783 7.58136 1.00783 6.10852C1.00783 4.8847 1.33869 3.81743 2.0004 2.90668C2.66923 1.98882 3.56574 1.2773 4.68994 0.772126C5.82126 0.259832 7.0842 0.003685 8.47878 0.003685C9.88759 0.003685 11.1399 0.256274 12.2356 0.761453C13.3313 1.25952 14.1994 1.94257 14.8398 2.81063C15.4872 3.67868 15.8288 4.66413 15.8644 5.76699H13.3029Z"></path>
</svg>

<svg xmlns="http://www.w3.org/2000/svg" width="170" height="29" fill="none" viewBox="0 0 170 29"><path fill="#fff" d="M162.586 22.502q-2.37 0-4.088-1.046-1.707-1.056-2.636-2.946-.918-1.9-.918-4.418 0-2.52.918-4.44.929-1.932 2.583-3.01 1.665-1.089 3.885-1.088 1.281 0 2.529.426a6.3 6.3 0 0 1 2.274 1.388q1.024.95 1.633 2.519.608 1.569.608 3.863v1.068h-12.637V12.64h10.075q0-1.387-.555-2.476a4.2 4.2 0 0 0-1.558-1.718q-1.003-.63-2.369-.63-1.504 0-2.604.747a4.9 4.9 0 0 0-1.676 1.921 5.65 5.65 0 0 0-.587 2.54v1.452q0 1.857.64 3.148.652 1.28 1.804 1.954 1.153.66 2.679.661a5.5 5.5 0 0 0 1.793-.277 3.8 3.8 0 0 0 1.398-.854q.588-.576.907-1.43l2.434.683a5.4 5.4 0 0 1-1.292 2.177q-.906.93-2.241 1.452-1.334.512-2.999.512m-21.934-10.203v9.861h-2.519V5.767h2.433v2.561h.214a4.7 4.7 0 0 1 1.75-2.006q1.174-.768 3.031-.768 1.665 0 2.914.683 1.248.671 1.942 2.049.694 1.365.694 3.458V22.16h-2.519V11.915q0-1.933-1.003-3.01-1.003-1.089-2.754-1.089-1.205 0-2.156.523a3.74 3.74 0 0 0-1.483 1.526q-.544 1.004-.544 2.434m-6.629-1.067q0 3.457-1.249 5.976-1.248 2.52-3.426 3.885t-4.973 1.366q-2.796 0-4.974-1.366-2.176-1.366-3.426-3.885-1.248-2.518-1.248-5.976t1.248-5.977q1.25-2.52 3.426-3.885 2.178-1.365 4.974-1.366 2.796 0 4.973 1.366t3.426 3.885q1.25 2.518 1.249 5.977m-2.562 0q0-2.839-.949-4.793-.94-1.953-2.551-2.956-1.601-1.003-3.586-1.003-1.986 0-3.597 1.003-1.601 1.003-2.551 2.956-.939 1.953-.939 4.793t.939 4.791q.95 1.954 2.551 2.957 1.611 1.003 3.597 1.003t3.586-1.003q1.61-1.003 2.551-2.957.95-1.952.949-4.791m-22.663 11.099q-.79 0-1.355-.566a1.85 1.85 0 0 1-.566-1.355q0-.79.566-1.355a1.85 1.85 0 0 1 1.355-.566q.79 0 1.355.566.567.566.566 1.355 0 .524-.267.96-.256.438-.693.705-.427.255-.961.256M80.84 22.16V5.767h2.433v2.561h.214q.512-1.312 1.654-2.038 1.142-.736 2.743-.736 1.622 0 2.7.736 1.088.726 1.697 2.038h.17a4.8 4.8 0 0 1 1.89-2.017q1.26-.757 3.02-.757 2.199 0 3.597 1.376 1.398 1.366 1.398 4.259V22.16h-2.519V11.19q0-1.815-.992-2.594-.993-.78-2.338-.779-1.728 0-2.678 1.046-.95 1.035-.95 2.626V22.16h-2.562V10.933q0-1.398-.907-2.252-.907-.865-2.337-.865-.982 0-1.836.523a3.95 3.95 0 0 0-1.366 1.452q-.513.917-.512 2.124V22.16zm-10.62.342q-2.368 0-4.087-1.046-1.707-1.056-2.636-2.946-.918-1.9-.918-4.418 0-2.52.918-4.44.928-1.932 2.583-3.01 1.665-1.089 3.885-1.088a7.8 7.8 0 0 1 2.53.426q1.248.428 2.272 1.388 1.026.95 1.633 2.519.609 1.569.609 3.863v1.068H64.372V12.64h10.075q0-1.387-.555-2.476a4.2 4.2 0 0 0-1.558-1.718q-1.004-.63-2.37-.63-1.504 0-2.603.747a4.9 4.9 0 0 0-1.676 1.921 5.64 5.64 0 0 0-.587 2.54v1.452q0 1.857.64 3.148.65 1.28 1.804 1.954 1.152.66 2.679.661a5.5 5.5 0 0 0 1.793-.277 3.8 3.8 0 0 0 1.398-.854q.587-.576.907-1.43l2.434.683a5.4 5.4 0 0 1-1.292 2.177q-.908.93-2.241 1.452-1.335.512-3 .512M59.735 5.767v2.135h-8.496V5.767zm-6.02-3.928h2.52v15.625q0 1.068.309 1.601.32.524.81.705.502.17 1.057.17.416 0 .683-.042l.427-.086.513 2.263q-.257.096-.715.192-.459.107-1.164.107a5.1 5.1 0 0 1-2.092-.46 4.15 4.15 0 0 1-1.686-1.397q-.662-.939-.662-2.37zm-5.199 7.599-2.263.64a4.2 4.2 0 0 0-.63-1.099q-.405-.543-1.11-.896-.704-.352-1.803-.352-1.506 0-2.509.694-.992.682-.992 1.74 0 .938.683 1.483.683.544 2.134.907l2.434.598q2.198.533 3.276 1.633 1.078 1.087 1.078 2.806 0 1.41-.81 2.52-.802 1.11-2.242 1.75t-3.351.64q-2.508 0-4.152-1.089t-2.081-3.18l2.39-.598q.342 1.323 1.292 1.985.96.662 2.508.662 1.761 0 2.796-.747 1.046-.758 1.046-1.814 0-.855-.598-1.43-.597-.588-1.835-.876l-2.733-.64q-2.251-.534-3.308-1.655-1.046-1.13-1.046-2.828 0-1.388.78-2.454.788-1.068 2.144-1.676 1.367-.608 3.096-.608 2.433 0 3.82 1.067 1.398 1.067 1.986 2.817m-26.72 18.87a5.5 5.5 0 0 1-1.142-.107q-.502-.096-.694-.192l.64-2.22q.918.236 1.622.17.705-.063 1.25-.629.555-.555 1.013-1.803l.47-1.281-6.062-16.479h2.732l4.525 13.064h.17l4.526-13.064h2.732L26.62 24.551q-.47 1.27-1.164 2.103-.694.843-1.611 1.248-.907.405-2.05.406M13.303 5.767q-.193-1.623-1.558-2.519-1.366-.896-3.352-.896-1.45 0-2.54.47-1.077.469-1.686 1.29a3.1 3.1 0 0 0-.598 1.868q0 .876.417 1.505.426.62 1.088 1.036a8 8 0 0 0 1.388.672q.725.256 1.334.416l2.22.598q.853.225 1.9.619a8.8 8.8 0 0 1 2.017 1.078 5.5 5.5 0 0 1 1.6 1.729q.63 1.056.63 2.593 0 1.772-.928 3.202-.918 1.43-2.69 2.273-1.76.844-4.28.844-2.347 0-4.066-.758-1.707-.758-2.69-2.113Q.54 18.319.41 16.525h2.732q.108 1.239.833 2.05.736.8 1.857 1.195a7.5 7.5 0 0 0 2.433.384q1.515 0 2.722-.491 1.205-.502 1.91-1.387.705-.898.705-2.092 0-1.09-.609-1.772-.608-.682-1.6-1.11a17 17 0 0 0-2.146-.747l-2.69-.769q-2.56-.735-4.055-2.102T1.008 6.109q0-1.836.992-3.202Q3.004 1.53 4.69.772 6.387.004 8.479.004q2.113 0 3.757.757 1.643.748 2.604 2.05a5.1 5.1 0 0 1 1.024 2.956z"/></svg>
